deviantart.svg

<svg fill="currentColor" viewBox="0 0 24 24"><path d="M6 6h6l2-4h4v4l-3.5 7H18v5h-6l-2 4H6v-4l3.5-7H6z"/></svg>

<svg  viewBox="0 0 24 24" fill="currentColor"><path  d="M6,6H12L14,2H18V6L14.5,13H18V18H12L10,22H6V18L9.5,11H6V6Z"/></svg>
